X:11
T:Poppy Leaf, The
R:hornpipe
Z:id:hn-hornpipe-11
M:C|
K:G
(3CB,A,|G,B,DG B,DGB|DGBd GBdg|edcB cBAG|FGAF (3DED (3CB,A,|
G,B,DG B,DGB|DGBd GBdg|edcB cDEF|G2B2 G2:|
|:Bc|dBGB dBgd|bagf edcB|cAFA cAfg|agfe dcBA|
(3BAB (3GAB (3cBc (3ABc|(3dcd (3Bcd e2dc|BgdB cAFA|G2B2 G2:|

